icons/tsxTest.svg

<!-- Copyright 2000-2024 JetBrains s.r.o. and contributors. Use of this source code is governed by the Apache 2.0 license. -->
<svg width="16" height="16" viewBox="0 0 16 16" fill="none" xmlns="http://www.w3.org/2000/svg">
<path fill-rule="evenodd" clip-rule="evenodd" d="M15.3798 12.7117C15.5435 12.8691 15.5436 13.131 15.3799 13.2884L12.6774 15.8876C12.4232 16.132 12 15.9519 12 15.5993L12 10.4038C12 10.0513 12.423 9.87118 12.6772 10.1154L15.3798 12.7117Z" fill="#55A76A"/>
<path fill-rule="evenodd" clip-rule="evenodd" d="M7.62255 13.2883C7.45909 13.1309 7.45916 12.8692 7.62271 12.7119L10.3216 10.1163C10.5757 9.87185 10.9989 10.0519 10.9989 10.4045V15.5986C10.9989 15.9514 10.5755 16.1314 10.3214 15.8868L7.62255 13.2883Z" fill="#E55765"/>
<path fill-rule="evenodd" clip-rule="evenodd" d="M12.1725 5.59099C12.5569 3.83167 12.3545 2.43124 11.4999 1.93786C10.6454 1.44449 9.33141 1.9694 8.00002 3.18193C6.66861 1.96938 5.35462 1.44445 4.50007 1.93783C3.64551 2.43121 3.44312 3.83165 3.82753 5.59098C2.11166 6.13774 1 7.01324 1 8.00002C1 8.98677 2.1116 9.86226 3.8274 10.409C3.44298 12.1684 3.64536 13.5688 4.49993 14.0622C5.07814 14.396 5.86668 14.2637 6.72863 13.7676C6.52136 13.4519 6.45502 13.0706 6.52961 12.713C6.14133 12.9755 5.80383 13.1316 5.53381 13.2021C5.21683 13.2848 5.06579 13.2342 4.99993 13.1962C4.93407 13.1582 4.81476 13.0526 4.72789 12.7368C4.63942 12.4151 4.60884 11.9486 4.6809 11.3444C4.70655 11.1294 4.74444 10.9032 4.7946 10.6677C5.27303 10.7735 5.78359 10.8564 6.31835 10.9129C6.56292 11.2491 6.8139 11.5649 7.06809 11.8579L7.78988 11.1638C7.74267 11.1089 7.69551 11.053 7.64843 10.9963C7.75177 10.9985 7.85571 10.9997 7.96018 11L9.03607 9.96525C8.7003 9.98804 8.35429 10 8 10C7.61235 10 7.23459 9.98567 6.86934 9.95852C6.66318 9.65575 6.46186 9.33575 6.26802 9C6.07415 8.66422 5.89767 8.32984 5.73853 7.99988C5.89763 7.67001 6.07407 7.33572 6.26788 7.00004C6.46172 6.66429 6.66305 6.34429 6.8692 6.04153C7.2345 6.01437 7.6123 6.00002 8 6.00002C8.38771 6.00002 8.76552 6.01437 9.13083 6.04153C9.33698 6.34429 9.53829 6.66427 9.73212 7C9.92593 7.3357 10.1024 7.67 10.2615 7.99988C10.1023 8.32984 9.92585 8.66424 9.73198 9.00004C9.5876 9.25012 9.43906 9.49147 9.28747 9.72347L9.6284 9.39558C9.90792 9.12675 10.2459 9.00464 10.578 9.00192C10.9557 8.99883 11.2507 8.99989 11.5518 9.00097C11.6221 9.00122 11.6928 9.00148 11.765 9.00168C11.6479 8.6733 11.514 8.33843 11.3635 7.99986C11.5819 7.50859 11.7654 7.0251 11.9129 6.55794C12.142 6.63227 12.3568 6.71254 12.5558 6.79785C13.1151 7.03753 13.5038 7.29725 13.7382 7.53472C13.9683 7.76789 14 7.92397 14 8.00002C14 8.07607 13.9683 8.23215 13.7382 8.46532C13.546 8.66004 13.25 8.86972 12.8414 9.07105C13.0288 9.13368 13.2091 9.2397 13.37 9.39432L13.7195 9.73006C14.5261 9.24118 15 8.64432 15 8.00002C15 7.01324 13.8883 6.13774 12.1725 5.59099ZM10.7707 6.80627C10.7146 6.70419 10.6571 6.60208 10.5981 6.5C10.5392 6.39789 10.4795 6.297 10.4191 6.19736C10.5995 6.22813 10.7752 6.26216 10.9459 6.29918C10.8926 6.46545 10.8342 6.63465 10.7707 6.80627ZM11.2053 5.3323C10.7269 5.22652 10.2165 5.14368 9.68183 5.08717C9.36551 4.65233 9.03849 4.25162 8.70765 3.89019C8.88649 3.72905 9.06338 3.58318 9.23673 3.45349C9.72394 3.08899 10.1432 2.88223 10.466 2.798C10.783 2.71529 10.9341 2.76586 10.9999 2.80389C11.0658 2.84191 11.1851 2.94743 11.272 3.2633C11.3604 3.58499 11.391 4.05148 11.319 4.65566C11.2933 4.87067 11.2554 5.09682 11.2053 5.3323ZM5.05403 9.70083C5.1073 9.53447 5.16573 9.36519 5.22931 9.19347C5.28544 9.29563 5.34301 9.39784 5.40199 9.5C5.46096 9.60214 5.52067 9.70306 5.58106 9.80271C5.40056 9.77192 5.22474 9.73788 5.05403 9.70083ZM4.63653 7.99987C4.41809 8.49124 4.23456 8.97482 4.08697 9.44206C3.85797 9.36775 3.64319 9.28749 3.44417 9.2022C2.8849 8.96251 2.4962 8.70279 2.26184 8.46532C2.03173 8.23215 2 8.07607 2 8.00002C2 7.92397 2.03173 7.76789 2.26184 7.53472C2.4962 7.29725 2.8849 7.03753 3.44417 6.79785C3.64322 6.71254 3.85805 6.63227 4.08709 6.55794C4.23466 7.0251 4.41814 7.50859 4.63653 7.99987ZM5.22934 6.80627C5.28542 6.70421 5.34293 6.60211 5.40186 6.50004C5.46082 6.39791 5.52052 6.297 5.58091 6.19735C5.4005 6.22813 5.22478 6.26216 5.05416 6.29918C5.1074 6.46546 5.16579 6.63465 5.22934 6.80627ZM7.64829 5.00374C7.7648 5.00127 7.88206 5.00002 8 5.00002C8.11795 5.00002 8.23522 5.00127 8.35174 5.00375C8.23483 4.86283 8.11745 4.7276 8.00002 4.5983C7.88259 4.7276 7.7652 4.86283 7.64829 5.00374ZM7.29238 3.89019C6.96154 4.25161 6.63452 4.65233 6.3182 5.08717C5.78354 5.14368 5.27308 5.22652 4.79472 5.3323C4.74457 5.0968 4.70668 4.87064 4.68104 4.65563C4.60898 4.05145 4.63956 3.58496 4.72803 3.26326C4.8149 2.94739 4.93421 2.84188 5.00007 2.80385C5.06593 2.76583 5.21696 2.71526 5.53395 2.79796C5.85678 2.88219 6.27606 3.08896 6.76327 3.45345C6.93664 3.58315 7.11353 3.72903 7.29238 3.89019Z" fill="#3574F0"/>
<path d="M9 8.00002C9 8.55231 8.55229 9.00002 8 9.00002C7.44772 9.00002 7 8.55231 7 8.00002C7 7.44774 7.44772 7.00002 8 7.00002C8.55229 7.00002 9 7.44774 9 8.00002Z" fill="#3574F0"/>
</svg>

<svg xmlns="http://www.w3.org/2000/svg" width="16" height="16" fill="none"><path fill="#55A76A" fill-rule="evenodd" d="M15.38 12.712a.4.4 0 0 1 0 .576l-2.703 2.6a.4.4 0 0 1-.677-.289v-5.195a.4.4 0 0 1 .677-.289z" clip-rule="evenodd"/><path fill="#E55765" fill-rule="evenodd" d="M7.623 13.288a.4.4 0 0 1 0-.576l2.699-2.596a.4.4 0 0 1 .677.289v5.194a.4.4 0 0 1-.678.288z" clip-rule="evenodd"/><path fill="#3574F0" fill-rule="evenodd" d="M12.173 5.591c.384-1.76.181-3.16-.673-3.653-.855-.494-2.169.031-3.5 1.244-1.331-1.213-2.645-1.738-3.5-1.244-.854.493-1.057 1.894-.672 3.653C2.112 6.138 1 7.013 1 8s1.112 1.862 2.827 2.409c-.384 1.76-.182 3.16.673 3.653.578.334 1.367.202 2.229-.294a1.4 1.4 0 0 1-.2-1.055c-.388.263-.725.419-.995.49-.317.082-.468.031-.534-.007s-.185-.143-.272-.46c-.089-.32-.12-.787-.047-1.392q.038-.322.114-.676c.478.106.989.188 1.523.245q.368.505.75.945l.722-.694-.142-.168q.156.004.312.004l1.076-1.035A15 15 0 0 1 6.87 9.96a15 15 0 0 1-1.13-1.96 15 15 0 0 1 1.13-1.957 15 15 0 0 1 2.262 0A15 15 0 0 1 10.26 8a15 15 0 0 1-.974 1.723l.341-.327c.28-.27.618-.391.95-.394.378-.003.673-.002.974-.001h.213A14 14 0 0 0 11.363 8c.219-.491.402-.975.55-1.442q.344.112.643.24c.56.24.948.5 1.182.737.23.233.262.389.262.465s-.032.232-.262.465c-.192.195-.488.405-.897.606.188.063.368.169.529.323l.35.336C14.526 9.241 15 8.644 15 8c0-.987-1.112-1.862-2.828-2.409M10.77 6.806a16 16 0 0 0-.352-.609q.27.046.527.102-.08.25-.175.507m.434-1.474a14 14 0 0 0-1.523-.245 14 14 0 0 0-.974-1.197q.268-.242.529-.437c.487-.364.906-.57 1.229-.655.317-.083.468-.032.534.006s.185.143.272.46c.088.321.119.787.047 1.392a8 8 0 0 1-.114.676M5.054 9.701q.08-.25.175-.508a17 17 0 0 0 .352.61 12 12 0 0 1-.527-.102M4.637 8c-.219.491-.402.975-.55 1.442a8 8 0 0 1-.643-.24c-.56-.24-.948-.5-1.182-.737C2.032 8.232 2 8.076 2 8s.032-.232.262-.465c.234-.238.623-.497 1.182-.737q.3-.128.643-.24.222.702.55 1.442m.592-1.194a17 17 0 0 1 .352-.609q-.27.046-.527.102.08.25.175.507m2.42-1.802a17 17 0 0 1 .703 0Q8.176 4.793 8 4.598q-.176.195-.352.406M7.291 3.89q-.497.544-.974 1.197c-.534.057-1.045.14-1.523.245a8 8 0 0 1-.114-.676c-.072-.605-.041-1.071.047-1.393.087-.316.206-.421.272-.46.066-.037.217-.088.534-.005.323.084.742.291 1.23.655q.26.195.528.437" clip-rule="evenodd"/><path fill="#3574F0" d="M9 8a1 1 0 1 1-2 0 1 1 0 0 1 2 0"/></svg>
